X: 18133
T: Humours Of Castlefin, The
R: reel
M: 4/4
K: Eminor
A|BE E2 BAFB|ADFD EFAd|BE E2 B2 AF|GBAF E2 FA|
BE E2 BE E2|ADFD EF A2|BE E2 B2 FA|GBAF E3A||
B2 ed egfe|defg afed|B2 ed efgb|agfa ge e2|
B2 ed egfe|defg afdf|efga bagf|egfd edBA|

